X:12007
T:Longford Collector, The
T:Longford Beggarwoman
R:Reel
C:Trad.
O:Ireland
Z:Paul Hardy's Session Tunebook 2022 (see www.paulhardy.net). Creative Commons cc by-nc-sa licenced.
M:4/4
L:1/8
Q:1/4=120
K:G
DE|"G"G2GA Bddg|"Em"eBB2 eBdB|"G"G2GA B2dB|"Am"AcBA "Em"GEDE|
"G"G2GA Bddg|"Em"eBBB "D"d2ef|"G"g2af gedB|"Am"AcBA "Em"GE:|
|:DE|"G"g2ga ge "D"df|"Em"eBBd "D"d2ef|"G"gbaf gedB|"Am"AcBA "Em"GEDE|
"G"g3a ge "D"df|"Em"eBBd "D"d2ef|"G"g2af gedB|"Am"AcBA "Em"GE:|"_Out"DE|"G"G6|]

